X: 140639
T: Nova Scotia 
S: Luke O'Malley vol 1
Z: B.Black
M: 6/8
L: 1/8
R: jig
K: G
B/A/ | GG,B, DGB | d^ce dBG | cBc ABc | dgd B2 A |
GG,B, DGB | d^ce dBG | cBc ABc |1 edF G2 B/A/ :|2\
edF G2 d ||
gfg Bdg | bag fed | cBc ABc | dgd B2 d |
gfg Bdg | bag fed | cBc ABc |1 edF G2 d :|2\
edG G2 z ||
